X:107
T:Reel 107
M:4/4
K:Gmaj
L:1/8
BA|G2BG d2BG|ADBG AGEG|G2BG d2BG|AFDE FDEF|G2BG GBdB|cBAc BGG2|edeg edBG|AGAB G2|Bd|e2ef edBG|AGAG FADf|gfed BcdB|AGAB A2Bd|egdB cABG|AGFG AGEF|GAGE DEGB|AGAB G2|
